d1 $ every 4 (rev) $ sound "gong*4" # speed "1 1.2 2 2.5" # n "1 3 2 4"
d2 $ every 2 (density 2) $ every 4 (rev) $ sound "afrobell*4" # gain "0.7" # n "1 3 2 4"
d3 $ every 4 (0.5 <~) $ sound "calung" # gain 0.5 # speed "6" # pan rand
d4 $ every 8 (density 2) $ every 4 (rev) $ sound "balafon*4?" # speed "1 1.2 1.5 3.5" # n "3 5 7 4" # pan (rand) # gain "0.7"
d5 $ sound "kora*4?" # gain "0.7" # speed "2 1.7 ~ 3.5" # n "3 2.5 1.8 1"
d6 $ sound "bollybell*4/4?" # n "3 ~ 3 ~" # gain 0.9
cps 0.5
hush
